X:1
T:Title
%%score [ ( 1 2 ) ( 3 4 ) ]
L:1/8
Q:1/4=108
M:4/4
K:Bb
V:1 treble-8 nm="Tenor I/II"
V:2 treble-8 
V:3 bass nm="Bass I/II"
V:4 bass 
V:1
"^Moderato" z8 | z2 f2 =e2 _e2 | !fermata!d2 z2 z4 | z2 g2 f2 f2 | !fermata!=e2 z2 z4 | %5
w: |(Sweet Ad- e-|line)|(My Ad- e-|­line)|
 z2 e2 e3 d | !fermata!e2 z2 z4 | z2 d2 d2 d2 | !fermata!e2 z2 z4 | z2 f2 =e2 _e2 | %10
w: (At night, dear|heart)|(for you I|pine)|(In all my|
 !fermata!d2 z2 z4 | z2 g2 f2 f2 | !fermata!=e2 z2 z4 | z4 !fermata!g2 !fermata!f2 | %14
w: dreams)|(Your fair face|beams)||
 !fermata!=e2 e2 _e3 e | d2 f2 =e2 _e2 | d6 z2 |] %17
w: |* (Sweet Ad- e-|line.)|
V:2
 x8 | B8- | !fermata!B2 B2 A3 ^F | G8- | !fermata!G2 B2 B3 G | A8- | !fermata!A2 G2 G2 =E2 | F8- | %8
w: |line|* My Ad- e-|line|* At night, dear|heart|* For you I|pine|
 !fermata!F2 d2 c3 F | B8- | !fermata!B2 B2 A2 ^F2 | G8- | !fermata!G2 x2 A2 G2 | %13
w: * In all my|dreams|* Your fair face|beams|* You're the|
 F2 B2 !fermata!e2 !fermata!d2 | !fermata!c2 G2 A3 F | B8- | B6 x2 |] %17
w: flow- er of my|heart, Sweet Ad- e-|line||
V:3
 z8 | z2 _A,2 G,2 _G,2 | !fermata!F,2 z2 z4 | z2 B,2 =B,2 B,2 | C!fermata!B, z2 z4 | z2 C2 C3 =B, | %6
 !fermata!C2 z2 z4 | z2 B,2 _A,2 A,2 | !fermata!=A,2 z2 z4 | z2 D2 ^C2 =C2 | !fermata!B,2 z2 z4 | %11
 z2 B,2 =B,2 B,2 | C!fermata!B, z2 z4 | z4 !fermata!=B,2 !fermata!B,2 | !fermata!G,2 B,2 C3 A, | %15
 F,2 _A,2 G,2 _G,2 | F,6 z2 |] %17
V:4
 x8 | x2 B,,2 B,,2 B,,2 | !fermata!B,,2 x6 | x2 E,2 D,2 D,2 | !fermata!C,2 x6 | x2 F,2 F,3 F, | %6
 !fermata!F,2 x6 | x2 B,,2 =B,,2 B,,2 | !fermata!C,2 x6 | x2 _A,2 G,2 _G,2 | !fermata!F,2 x6 | %11
 x2 E,2 D,2 D,2 | !fermata!C,2 x6 | x4 !fermata!G,2 !fermata!G,2 | !fermata!C,2 C,2 F,3 F, | %15
 B,,8- | B,,6 x2 |] %17

